X:549
T: Musterung (248b), S. 531f
N: T0437
O: Luxemburg
S: Singendes Volk, Esch-Alzette, 1937 posth.]
N: Heffingen, hhh Johann Gales, 30.8.1934;
N: (249)- Liederheft, 148-51
R: Berufslied]
M: 2/4
L: 1/16
K: G
D2 | BBBBA2A2 | G2D2D2z2 |
B4A2A2 | G4z2
B2 | (3BBBBBB2A2 | A4z2
G2 | (3GGGGGG2D2 | D4z4 |
G4A2A2 | B4z4 |
d4c2c2 | B4z2

@@@ Tune index: 8603
